elements/rpg-character/lib/hat/error.svg

<svg xmlns="http://www.w3.org/2000/svg" fill="none" width="113" height="142" viewBox="0 0 113 142"><path d="M43 62v-5H8V47h10V27h5V17h5v-5h15V7h7v5h6V7h7v5h20v5h5v10h5v20h10v10H63v5H43Z" fill="#BD342B"/><path d="M50 22V12h6v10h-6Zm13 5V12h5v15h-5Zm-20 0V12h-5v15h5Z" fill="#A0180F"/><path d="M13 52v-5h30v5h20v-5h25V27h-5V17h-5v-5h5v5h5v10h5v20h5v5H63v5H43v-5H13Z" fill="#A0180F"/><path d="M8 47h5V27h5V17h5v-5h5V7h15V2h7v5h6V2h7v5h20v5h5v5h5v10h5v20h5v10H63v-5h35v-5h-5V27h-5V17h-5v-5H63V7h-7v5h-6V7h-7v5H28v5h-5v10h-5v20h-5v5h30v5H8V47Zm35 15v-5h20v5H43Z" fill="#000"/><path d="M23 47h-5V27h5V17h5v-5h10v5H28v10h-5v20Z" fill="#EA726A"/><path d="M56 29h-6v2h-3v3h-2v6h2v3h3v2h6v-2h3v-3h2v-6h-2v-3h-3v-2Z" fill="#FDFBF4"/><path d="M51.5 39.5h3v3h-3v-3Zm0-7.5h3v6.5h-3V32Z" fill="#000"/></svg>

<svg width="113" height="142" viewBox="0 0 113 142" fill="none" xmlns="http://www.w3.org/2000/svg">
<path d="M43 62V57H8V47H18V27H23V17H28V12H43V7H50V12H53H56V7H63V12H83V17H88V27H93V47H103V57H63V62H43Z" fill="#BD342B"/>
<path d="M50 22V12H56V22H50Z" fill="#A0180F"/>
<path d="M63 27V12H68V27H63Z" fill="#A0180F"/>
<path d="M43 27V12H38V27H43Z" fill="#A0180F"/>
<path d="M13 52V47H43V52H63V47H88V27H83V17H78V12H83V17H88V27H93V47H98V52H63V57H43V52H13Z" fill="#A0180F"/>
<path d="M8 47H13V27H18V17H23V12H28V7H43V2H50V7H56V2H63V7H83V12H88V17H93V27H98V47H103V57H63V52H98V47H93V27H88V17H83V12H63V7H56V12H50V7H43V12H28V17H23V27H18V47H13V52H43V57H8V47Z" fill="black"/>
<path d="M43 62V57H63V62H43Z" fill="black"/>
<path d="M23 47H18V27H23V17H28V12H38V17H28V27H23V47Z" fill="#EA726A"/>
<path d="M56 29H50V31H47V34H45V40H47V43H50V45H56V43H59V40H61V34H59V31H56V29Z" fill="#FDFBF4"/>
<path d="M51.5 39.5H54.5V42.5H51.5V39.5Z" fill="black"/>
<path d="M51.5 32H54.5V38.5H51.5V32Z" fill="black"/>
</svg>
